X:1
T:Gottschalk Waltz
T:GOTTSCHALK WALTZ
T:Teresa Carreño
%%score { ( 1 3 ) | ( 2 4 ) }
L:1/8
Q:1/4=140
M:4/4
K:Ab
V:1 treble nm="Piano" snm="Pno."
V:3 treble 
V:2 bass 
V:4 bass 
V:1
"^Andante."!f! [Aa]7/2 [cc']/ [Ee]>[Aa] [Cc]>[Ee] | [A,A]4!p! (g2 ab) | %2
 !arpeggio![c_ea]7/2!f! [cc']/ [Ee]>[Aa] [Cc]>[Ee] | [A,A]4!p! (_F2 ED) | %4
 [A,C]3 z!p! !arpeggio![C=EGBc]2 z2 | %5
!p! !arpeggio![CFAc]3 z !arpeggio!!fermata![_EGBd_e]3[Q:1/4=120] (3c/d/=d/ | %6
 e!8va(!e'e'e'{e'f'} (3e'/d'/c'/b!8va)! z a |{ab} (3a/g/f/e ee (3e/g/f/e!<(! z (3c/d/=d/ | %8
 e!8va(!{e'}e'e'e'{e'f'} (3e'/d'/c'/b z f'!<)! | %9
!>(!{f'g'} f'/e'/{e'f'} e'/d'/{d'e'} d'/c'/!8va)! (c'/>b/ a2) z2!>)! | %10
!f!"_leggiero"[Q:1/4=80] !arpeggio![C=EGBc]!8va(!(12:8:12(c'/8d'/8=d'/8e'/8=e'/8f'/8_g'/8=g'/8a'/8=a'/8b'/8=b'/8 c'')!8va)! z!f! !arpeggio![FA_df]!8va(!(12:8:12(f'/8_g'/8=g'/8a'/8=a'/8b'/8=b'/8c''/8d''/8=d''/8e''/8=e''/8 f'')!8va)! z | %11
"^rapido" x3/2 E/8^F/8 G/8=A/8c/8B/8 e/8^f/8 g/8=a/8c'/8b/8!8va(! e'/8^f'/8 g'/8=a'/8c''/8b'/8 e''/4 !trill(!!fermata!Te''2 (d''/4b'/4g'/4e'/4d'/4b/4g/4e/4)!8va)! | %12
 (6:4:6d/4B/4G/4E/4D/4B,/4 x{!fermata!=e'!fermata!f'} !fermata!e'2 (23:16:23(=d'/8_d'/8c'/8b/8a/8g/8f/8e/8=d'/8_d'/8c'/8b/8a/8g/8f/8e/8=d/8_d/8c/8B/8A/8G/8F/8 E)"_rattent."{FE=D}(3(E/F/G/)(3A/.B/.=B/ !fermata!z || %13
[M:3/4]!f![Q:1/4=160] (3cd=d |:S .e z !arpeggio!!wedge![eac'e'] z (3cd=d | %15
 .e z !arpeggio!!wedge![ac'e'a'] z (3=def | .g z{gbe'} (3g'f'e' (3d'c'b | (3ac'a .e z (3cd=d | %18
 .e z !arpeggio!!wedge![eac'e'] z (3cd=d | %19
 .e z !arpeggio!!wedge![ac'e'a'] z!f!!8va(! (3[gg'][=a=a'][=b=b'] | %20
 [c'c'']2- (3[c'c''][=b=b'][c'c''] (3[=d'=d''][e'e''][d'd''] |1 [c'c'']4!8va)!!f! (3cd=d :|2 %22
!8va(! [c'c'']2- (3[c'c'']!8va)!c'c'!p!{d'} (3c'=bc' |: d'2{d'e'} (3d'c'b (3agf | %24
 (3eac .e z (3efe | (3dfG .B z (3BcB | (3AcE (3Ac'c'{d'} (3c'=bc' | d'2- (3d'c'b (3agb | %28
 a2- (3af=e (3fga | _e2- (3ece (3dEB |1 A2- (3Ac'c'{d'} (3c'=bc' :|2 A2 G/A/B/c/ d/e/f/_g/ |: %32
 a2- a3/2(3(a/4b/4a/4 =ga) | (f'd'af d>=A) | !>!c6 | B2- (B3/2(3B/4c/4B/4 =AB) | %36
"_cresc." (3cBA (3edc (3_gfe | (3c'ba (3e'd'c' (3_g'f'e' | b'2- b'>(a'f'>d' | %39
 a2-)!f! a(g/a/ b/c'/d'/e'/ |"_dolce" f'2-) f'3/2(3(f/4_g/4f/4 =ef) | (_e'c'=af e>c) | !>!e4 d2- | %43
 d(ced c>B | A2-)!f! A(F/A/ d/f/a/d'/ | f'2) f'>[_ge'][af']>[ge'] | %46
 [fd']2- [fd'](d'/a/ f/d/A/F/) |1 z2 z/ (A/B/c/ d/e/f/_g/) :|2 z6 |:!p! [eg]2 (!>![df]3 [ce]) | %50
 [df]2 (!>![ce]3 [=B=d]) | [ce]6 | [Ac]2- [Ac]!<(!(cea | c'2-)!<)! c'b!<(!_fd | %54
 c'2-!<)! c'be!<(!d | b2- (bae!<)!c | A)(B!<(!cdef!<)! | [e_g]2) (!>![df]3 [ce]) | %58
 [e_g]2 ((!>![df]3 [ce])) |!>(! ([ce]4 [Bd]2)!>)! |!f! [fd']2!>(! ([ec']3 [db])!>)! | %61
 [ec']2!>(! ([db]3 [ca])!>)! | [db]2!>(! ([ca]3 [Bg])!>)! |!ff! [ca]2 ([Gg][Aa][cc'][ee'] | %64
 [aa']6)!dacoda! :: c'3 (=b c') z | z (=b c'3) (b | c'2-) c'3 (_b/a/ | g6) | c'3 (=b c') z | %70
 z (=b c'3) (g | b2-) b3 (a/g/ | f6) | (!^!B3 d _g2) | (!^![_g_g']3 [dd'] [Bb]2) | (!^!=B3 =d f2) | %76
 (!^![ff']3 [=d=d'] [=B=b]2) | (c'f'ac'fa) | (c=e a3 g) | f6- | f6 ::!p! (cedc ._g) z | %82
 (cedc ._g) z | (BdcB .f) z | (BdcB .f) z | (=dfed .a) z | (=dfed .a) z | (ce=dc .g) z | %88
 (ce=dc .g) z | f(baf c'2-) |!f! c'(b=ab{=d'}c'b | b4) g'2- | g'(f'e'=d'{f'} e'>c' | %93
 b2-) b(3(b/c'/b/ =ab | =d'c'bagf | e6-) | e6 ::{=df} e6 | =d2- d7/2 c/ | %99
 G2!8va(! (e''/=d''/_d''/c''/ =b'/_b'/=a'/_a'/ | g'6)!8va)! |{=eg} f6 | e2- e7/2 =d/ | %103
 G!8va(!(f''/=e''/ _e''/=d''/_d''/c''/ =b'/_b'/=a'/_a'/ | g'6)!8va)! |{/G} g6- | g(_gf=e_e=d | %107
 _d6) | (cdbafd | c3) (G/c/ e/g/c'/e'/ | g'7/2) (f'/ e'>=d' | c'6-) | c'6 :: g6- | g(^fgb g'>f') | %115
 (f'4 e'2) | z (=dea_d'c') | (c'4 b2) | z (d=dec'b) | b6 | a3 (gab | c'3) (=b (c'2) | %122
 c')(d' c'2) z (=b | c'4) (d'2 | f')(e'd'c'{e'} d'>b | b4) ae | (fe=de c'>b | a6-) |1 a6 :|2 %129
 a4!f! (3cd=d!D.S.! ||O!p! (ABAGAB | cdef_g=g | b3) (afd | A6) | (GBd=egb |!8va(! d'=e'g'b'd''g' | %136
 a'2){a'b'} (a'>g'a'>c'' | e'6) | (a''3 _g''e''c'' | a'_g'e'c'a=g | b3)!8va)! (afd | A6) | %142
!8va(! (g''3 =e''d''b' | g'=e'd'bg_f!8va)! | e2){ef} (e>=de>c' | a6) ||[K:E] (!>!g'3 f'e'd' | %147
 c'bagf^e) |{/^e} !>!g6 | f6 | (!>!a'3 g'f'e' | d'c'bag^^f) |!>(! (^^f6 | g6)!>)! | g6 | %155
 (ga{ga}gfed) |{/d} f6 | e6 | d6 | de{de}dcB^A |{/^A} c6 | B6 ||[K:Ab]!<(! (agagag | agagab | %164
 c'2-) c'7/2 a/ | e6!<)! | f7/2 e/ G2 | f'7/2 e'/ g2 |!>(! b6{ac'b} | a6!>)! |!<(! (agagag | %171
 agagab | c'2-) c'7/2 a/ | e6!<)! | f'7/2 e'/ g2 |!>(! _f7/2 e/!>)! G2 | A6 |!pp! (gabc'd'g | a6) | %179
!pp! (gabc'd'g | a6) |!ff! (agagac' | e=dedea | c=BcBce | A6) |!fff! !wedge![c'e'a'c'']2 z2 z2 | %186
 !wedge![CEA]2 z2 z2 | !wedge![ceac']2 z2 z2 | x6 |] %189
V:2
 [A,,A,]7/2 [C,C]/ [E,,E,]>[A,,A,] [C,,C,]>[E,,E,] | [A,,,A,,]4 [A,D=E]4 | %2
 !arpeggio![A,C_EA]7/2 [C,C]/ [E,,E,]>[A,,A,] [C,,C,]>[E,,E,] | [A,,,A,,]4 [A,,D,]4 | %4
 [A,,E,]3 z!ped! !arpeggio![G,,C,B,]2!ped-up! z2 | %5
!ped! !arpeggio![F,,C,A,]3!ped-up! z!ped! !arpeggio!!fermata![G,,_E,B,]3!ped-up! z | %6
"^peon espressione" [A,,,A,,][K:treble][CEA][CEA][CEA][K:bass] [D,,D,][K:treble][CEA][CEA][CEA] | %7
[K:bass] [E,,E,][K:treble][B,DEG][B,DEG][B,DEG][K:bass] [A,,,A,,][K:treble][CEA][CEA] z | %8
[K:bass] [C,,C,][K:treble][CEA][CE_G=A][CEGA][K:bass] [D,,D,][K:treble][DFB][DFB][DFB] | %9
[K:bass] [E,,E,][K:treble][B,DEG][B,DEG][B,DEG][K:bass] [A,,,A,,][K:treble][CEA][CEA] z | %10
[K:bass]!ped! !arpeggio![C,,C,B,] z!ped-up! z2"^leggiero"!ped! !arpeggio![D,,D,D] z!ped-up! z2 | %11
 E,,/8^F,,/8 G,,/8=A,,/8C,/8B,,/8 E,/8^F,/8 G,/8=A,/8C/8B,/8 x/ x2 x4 | %12
 x (5:4:5G,/4E,/4D,/4B,,/4G,,/4 !fermata!E,,2 x6 ||[M:3/4] z2 |: [A,,,A,,]2 [A,CEA]2 [A,CEA]2 | %15
 [A,,,A,,]2 [A,CE]2 [A,CE]2 | [E,,E,]2 [B,DEG]2 [B,DEG]2 | [A,,A,]2 [A,CEA]2 [A,CEA]2 | %18
 [A,,,A,,]2 [A,CEA]2 [A,CEA]2 | [A,,,A,,]2 [A,CE]2 [CE]2 | [G,,G,]2 [G,CEG]2 [G,=B,=DF]2 |1 %21
 [C,,C,]2 [CEG]2 [CEG]2 :|2 [C,,C,]2 [CEG]2 z2 |: [E,,E,]2 [B,DEG]2 [B,DEG]2 | %24
 [A,,A,]2 .[A,CE] z [A,CE]2 | [E,,E,]2 .[E,G,D] z [E,G,D]2 | [A,,A,]2 .[A,CE] z [A,CE]2 | %27
 [=E,,=E,]2 [G,B,D=E]2 [G,B,DE]2 | [F,,F,]2 [F,A,CF]2 [=D,F,A,=B,]2 | %29
 [E,,E,]2 [E,A,C]2 [E,G,B,D]2 |1 (3A,E,C, A,, z z2 :|2 [A,C]2"^dolce" A,,2 z2 |: %32
 [D,,D,]2 [A,DF]2 [A,DF]2 | [F,,F,]2 [F,A,D]2 [F,A,D]2 | [_G,,_G,]2 [G,B,E]2 [G,B,E]2 | %35
 [E,,E,]2 [_G,B,D]2 [G,B,D]2 | [A,,A,]2 [A,CE_G]2 [A,CEG]2 | z2 [A,CE]2 [A,CE]2 | %38
 z2 [A,DF]2 [A,DF]2 | z2 [F,A,D]2 [F,A,D]2 | [D,,D,]2 [F,A,D]2 [F,A,D]2 | z2 [F,=A,E]2 [F,A,E]2 | %42
 [B,,B,]2 [B,DF]2 [B,DF]2 | [_G,,_G,]2 [G,B,E]2 [G,B,E]2 | [A,,A,]2 [A,DF]2 [A,DF]2 | %45
 [A,,A,]2 [A,CE_G]2 [A,CEG]2 | z2 [F,A,D]2 [F,A,D]2 |1 [D,D]2 z2 z2 :|2 !^![D,F,A,D]4 z2 |: %49
 [E,,E,]2 [B,DEG]2 [B,DEG]2 | [E,,E,]2 [G,B,DE]2 [G,B,DE]2 | [A,,A,]2 [A,CE]2 [A,CE]2 | %52
 [A,,A,]2 [A,CE]2 [A,CE]2 | z2 [G,B,D]2 [G,B,D]2 | z2 [B,DE]2 [B,DE]2 | [A,,A,]2 [A,CE]2 [A,CE]2 | %56
 [A,,A,]2 [A,CE]2 [A,CE]2 | [=A,,=A,]2 [A,CEF]2 [A,CEF]2 | [F,,F,]2 [=A,CE]2 [A,CE]2 | %59
 [B,,B,]2 [B,DF]2 [B,DF]2 | [D,,D,]2 [F,B,D]2 [F,B,D]2 | [E,,E,]2 [E,A,C]2 [E,A,C]2 | %62
 [E,,E,]2 [G,B,DF]2 [G,B,DF]2 | [A,,A,]2 ([G,,G,][A,,A,][E,,E,][C,,C,] |"^Fine." [A,,,A,,]4) x2 :: %65
 z2 [A,CF]2 [A,CF]2 | z2 [A,CF]2 [A,CF]2 | z2 [B,C=E]2 [B,CE]2 | z2 [G,B,C]2 [G,B,C]2 | %69
 z2 [G,B,C]2 [G,B,C]2 | z2 [G,B,C]2 [G,B,C]2 | z2 [A,CF]2 [A,CF]2 | z2 [A,CF]2 [A,CF]2 | %73
 !^![B,,B,]2 [B,D_G]2 [B,DG]2 | !^![B,,B,]2 [B,D_G]2 [B,DG]2 | !^![=B,,=B,]2 [B,=DFA]2 [B,DFA]2 | %76
 !^![=B,,=B,]2 [B,=DFA]2 [B,DFA]2 | z2 [F,A,C]2 [F,A,C]2 | z2 [=E,B,C]2 [E,B,C]2 | %79
 z2 [A,CF]2 [A,CF]2 | [F,,F,]6 :: [=A,,=A,]2"^scherz." [A,CE_G]2 [A,CEG]2 | %82
 [=A,,=A,]2 [A,CE_G]2 [A,CEG]2 | [B,,B,]2 [B,DF]2 [B,DF]2 | [B,,B,]2 [B,DF]2 [B,DF]2 | %85
"^poco    a   poco   cres  _   cen  _   _   do" [=B,,=B,]2 [B,=DFA]2 [B,DFA]2 | %86
 [=B,,=B,]2 [B,=DFA]2 [B,DFA]2 | [C,C]2 [CEG]2 [CEG]2 | [C,C]2 [CEG]2 [CEG]2 | %89
 z2 [F,A,B,=D]2 [F,A,B,D]2 | B,,2 [=D,F,A,]2 [D,F,A,]2 | z2 [B,,E,G,]2 [B,,E,G,]2 | %92
"^dolce" [A,,A,]2 [A,CF]2 [A,CF]2 | [B,,B,]2 [B,EG]2 [B,EG]2 | [B,,B,]2 [B,=DFA]2 [B,DFA]2 | %95
 z2 [G,B,E]2 [G,B,E]2 | [E,,E,]6 ::"^con espressione" z2 [E,G,C]2 [E,G,C]2 | z2 [E,G,C]2 [E,G,C]2 | %99
 z2"^leggiero" [E,G,C]2 [E,G,C]2 | z2 [E,G,C]2 [E,G,C]2 | z2 [F,G,=B,]2 [F,G,B,]2 | %102
 z2 [F,G,=B,]2 [F,G,B,]2 | z2"^leggiero" [=D,F,G,]2 [D,F,G,]2 | z2 [=B,,=D,F,]2 [B,,D,F,]2 | %105
 [C,,C,]2 [E,G,C]2 [E,G,C]2 | [E,,E,]2 [E,G,C]2 [E,G,C]2 | [F,,F,]2 [F,A,D]2 [F,A,D]2 | %108
 [F,,F,]2 [F,A,D]2 [F,A,D]2 | [G,,G,]2 [G,CE]2 [G,CE]2 | [G,,G,]2 [G,=B,=DF]2 [G,B,DF]2 | %111
 [C,C]2 [CEG]2 [CEG]2 | [C,,C,]6 ::"^con espressione" [E,,E,]2 [E,G,B,D]2 [E,G,B,D]2 | %114
 [E,,E,]2 [E,G,B,D]2 [E,G,B,D]2 | [A,,A,]2 [A,CE]2 [A,CE]2 | [A,,A,]2 [A,CE]2 [A,CE]2 | %117
 [B,,B,]2 [B,DEG]2 [B,DEG]2 | [G,,G,]2 [G,B,DE]2 [G,B,DE]2 | [A,,A,]2 [A,CE]2 [A,CE]2 | %120
 [A,,A,]2 [A,CE]2 [A,CE]2 | z2 [A,C]2 [A,C]2 | z2 [G,B,C]2 [G,B,C]2 | z2 [_G,=A,C]2 [G,A,C]2 | %124
 z2 [F,B,]2 [F,B,]2 | [E,,E,]2 [E,A,C]2 [E,A,C]2 | [E,,E,]2 [E,G,B,D]2 [E,G,B,D]2 | %127
 [A,,A,]2 [E,,E,]2 [C,,C,]2 |1 [A,,,A,,]6 :|2 A,2"_Dal Segno\n      al Fine." A,,2 z2 || %130
 [A,,A,]2 [A,CE_G]2 [A,CEG]2 | [A,CE_G]2 [A,CEG]2 [A,CEG]2 | [A,DF]2 [A,DF]2 [A,DF]2 | %133
 [A,DF]2 [A,DF]2 [A,DF]2 | [A,B,D=E]2 [A,B,DE]2 [A,B,DE]2 | [A,B,D=E]2 [A,B,DE]2 [A,B,DE]2 | %136
 [A,CEA]2 [A,CEA]2 [A,CEA]2 | [A,CEA]2 [A,CEA]2 [A,CEA]2 | !^![A,,A,]2 [A,CE_G]2 [A,CEG]2 | %139
 [A,CE_G]2 [A,CEG]2 [A,CEG]2 | [A,DF]2 [A,DF]2 [A,DF]2 | [A,DF]2 [A,DF]2 [A,DF]2 | %142
 [A,B,D=E]2 [A,B,DE]2 [A,B,DE]2 | [A,B,D=E]2 [A,B,DE]2 [A,B,DE]2 | [A,CEA]2 [A,CEA]2 [A,CEA]2 | %145
 [A,CEA]2 [A,CEA]2 [A,CEA]2 ||[K:E] [E,,E,]2"^con expressione" [G,B,E]2 [G,B,E]2 | %147
 [G,,G,]2 [G,B,E]2 [G,B,E]2 | [A,,A,]2 [A,CF]2 [A,CF]2 | [A,,A,]2 [A,CF]2 [A,CF]2 | %150
 [B,,B,]2 [B,DFA]2 [B,DFA]2 | [B,,B,]2 [B,DFA]2 [B,DFA]2 | z2 [G,B,E]2 [G,B,E]2 | %153
 z2 [G,B,E]2 [G,B,E]2 |"^dolce" D,2 [G,^B,F]2 [G,B,F]2 | D,2 [G,^B,F]2 [G,B,F]2 | %156
 C,2 [G,CE]2 [G,CE]2 | C,2 [G,CE]2 [G,CE]2 | ^A,,2 [D,^^F,C]2 [D,F,C]2 | %159
 ^A,,2 [D,^^F,C]2 [D,F,C]2 | G,,2 [D,G,B,]2 [D,G,B,]2 | G,,2 [D,G,B,]2 [D,G,B,]2 || %162
[K:Ab] z2 [A,=B,=D]2 [A,B,D]2 | z2 [F,A,=B,]2 [F,A,B,]2 | z2 [A,C]2 [A,C]2 | z2 [A,C]2 [A,C]2 | %166
 [E,,E,]2 [E,G,B,D]2 [E,G,B,D]2 | [E,,E,]2 [E,G,B,D]2 [E,G,B,D]2 | [A,,A,]2 [A,CE]2 [A,CE]2 | %169
 [A,,A,]2 [A,CE]2 [A,CE]2 | z2 [A,=B,=D]2 [A,B,D]2 | z2 [F,A,=B,]2 [F,A,B,]2 | z2 [A,CE]2 [A,CE]2 | %173
 z2 [A,CE]2 [A,CE]2 | [E,,E,]2 [E,G,B,D]2 [E,G,B,D]2 | [E,,E,]2 [E,G,B,D]2 [E,G,B,D]2 | %176
 [A,,A,]2 [A,CE]2 [A,CE]2 | [A,D_F]2 [A,DF]2 [A,DF]2 | [A,CE]2 [A,CE]2 [A,CE]2 | %179
 [A,D_F]2 [A,DF]2 [A,DF]2 | [A,CE]2 [A,CE]2 [A,CE]2 |!ped! !wedge![A,CEA]6!ped-up! | %182
!ped! !wedge![E,A,CE]6!ped-up! |!ped! !wedge![C,E,A,C]6!ped-up! | %184
!ped! !wedge![A,,C,E,A,]6!ped-up! |[K:treble] !wedge![Acea]2 z2 z2 | %186
[K:bass] !wedge![A,,A,]2 z2 z2 |[K:treble] !wedge![A,CEA]2 z2 z2 |[K:bass] !fermata![C,E,A,]6 |] %189
V:3
 x8 | x4 [Bd]4 | x8 | x4 [G,B,]4 | x8 | x8 | x!8va(! x5!8va)! x2 | x8 | x!8va(! x7 | x3!8va)! x5 | %10
 x!8va(! x2!8va)! x2!8va(! x2!8va)! x | x3!8va(! x5!8va)! | x10 ||[M:3/4] x2 |: x6 | x6 | x6 | x6 | %18
 x6 | x4!8va(! x2 | x6 |1 x4!8va)! x2 :|2!8va(! x8/3!8va)! x10/3 |: x6 | x6 | x6 | x6 | x6 | x6 | %29
 x6 |1 x6 :|2 x6 |: x6 | x6 | x6 | x6 | x6 | x6 | x6 | x6 | x6 | x6 | x6 | x6 | x6 | x6 | x6 |1 %47
 x6 :|2 x6 |: x6 | x6 | x6 | x6 | x6 | x6 | x6 | x6 | x6 | x6 | x6 | x6 | x6 | x6 | x6 | x6 :: x6 | %66
 x6 | x6 | x6 | x6 | x6 | x6 | x6 | x6 | x6 | x6 | x6 | x6 | x6 | x6 | x6 :: x6 | x6 | x6 | x6 | %85
 x6 | x6 | x6 | x6 | x6 | x6 | x6 | x6 | x6 | x6 | x6 | x6 :: x6 | x6 | x2!8va(! x4 | x6!8va)! | %101
 x6 | x6 | x!8va(! x5 | x6!8va)! | x6 | x6 | x6 | x6 | x6 | x6 | x6 | x6 :: x6 | x6 | x6 | x6 | %117
 x6 | x6 | x6 | x6 | x6 | x6 | x6 | x6 | x6 | x6 | x6 |1 x6 :|2 x6 || x6 | x6 | x6 | x6 | x6 | %135
!8va(! x6 | x6 | x6 | x6 | x6 | x3!8va)! x3 | x6 |!8va(! x6 | x6!8va)! | x6 | x6 ||[K:E] x6 | x6 | %148
 x6 | x6 | x6 | x6 | x6 | x6 | x6 | x6 | x6 | x6 | x6 | x6 | x6 | x6 ||[K:Ab] x6 | x6 | x6 | x6 | %166
 x6 | x6 | x6 | x6 | x6 | x6 | x6 | x6 | x6 | x6 | x6 | x6 | x6 | x6 | x6 | x6 | x6 | x6 | x6 | %185
 x6 | x6 | x6 | x6 |] %189
V:4
 x8 | x8 | x8 | x8 | x8 | x8 | x[K:treble] x3[K:bass] x[K:treble] x3 | %7
[K:bass] x[K:treble] x3[K:bass] x[K:treble] x3 |[K:bass] x[K:treble] x3[K:bass] x[K:treble] x3 | %9
[K:bass] x[K:treble] x3[K:bass] x[K:treble] x3 |[K:bass] x8 | x8 | x10 ||[M:3/4] x2 |: x6 | x6 | %16
 x6 | x6 | x6 | x6 | x6 |1 x6 :|2 x6 |: x6 | x6 | x6 | x6 | x6 | x6 | x6 |1 x6 :|2 x6 |: x6 | x6 | %34
 x6 | x6 | x6 | _G,6 | F,6 | D,6 | x6 | C,6 | x6 | x6 | x6 | x6 | D,6 |1 x6 :|2 x6 |: x6 | x6 | %51
 x6 | x6 | E,6 | G,6 | x6 | x6 | x6 | x6 | x6 | x6 | x6 | x6 | x6 | x6 :: F,6 | F,6 | G,6 | =E,6 | %69
 C,6 | =E,6 | F,6 | F,6 | x6 | x6 | x6 | x6 | C,6 | C,6 | F,6 | x6 :: x6 | x6 | x6 | x6 | x6 | x6 | %87
 x6 | x6 | =D,6 | x6 | G,,6 | x6 | x6 | x6 | E,6 | x6 :: C,6 | C,6 | C,6 | C,6 | =D,6 | =D,6 | %103
 =B,,6 | =G,,6 | x6 | x6 | x6 | x6 | x6 | x6 | x6 | x6 :: x6 | x6 | x6 | x6 | x6 | x6 | x6 | x6 | %121
 F,6 | =E,6 | =E,6 | D,6 | x6 | x6 | x6 |1 x6 :|2 x6 || x6 | x6 | x6 | x6 | x6 | x6 | x6 | x6 | %138
 x6 | x6 | x6 | x6 | x6 | x6 | x6 | x6 ||[K:E] x6 | x6 | x6 | x6 | x6 | x6 | E,6 | E,6 | x6 | x6 | %156
 x6 | x6 | x6 | x6 | x6 | x6 ||[K:Ab] F,6 | =D,6 | E,6 | E,6 | x6 | x6 | x6 | x6 | F,6 | =D,6 | %172
 E,6 | E,6 | x6 | x6 | x6 | x6 | x6 | x6 | x6 | x6 | x6 | x6 | x6 |[K:treble] x6 |[K:bass] x6 | %187
[K:treble] x6 |[K:bass] !fermata![A,,,A,,]6 |] %189

